X:33
T:Lendrick Hill
M:4/4
L:1/8
R:Slow reel
C:Gris Sanderson
Q:300
N:Lendrick Hill overlooks Glendevon and climbing 
N:up it is a good way of getting some space.This 
N:tune was on the first Waulk album.
K:Bm 
A|BEEF (3GFE FD|EFGA B3A|BGAF G2GA|Be-ec dBAB|
cFFc- cAB^G|ABce fecA|BEEF (3GFE FD|EGFD|E2GA||
||B2Bc d2B2|edBG A3F|DFEC DB,A,D|B,2B,A,B,2D2|
EG-GE F2GA|BdAB GEDA,|B,EEF (3GFE FD|EGFD E3||
